( pcb2gcode 1.3.2 )
( Software-independent Gcode )

( This file uses 1 drill bit sizes. )
( Bit sizes: [1mm] )

G94       (Millimeters per minute feed rate.)
G21       (Units == Millimeters.)
G91.1     (Incremental arc distance mode.)
G90       (Absolute coordinates.)
S10000     (RPM spindle speed.)

G00 Z10.00000 (Retract)
T1
M5      (Spindle stop.)
(MSG, Change tool bit to drill size 1.00000 mm)
M6      (Tool change.)
M0      (Temporary machine stop.)
M3      (Spindle on clockwise.)

G81 R5.00000 Z-2.50000 F1000.00000 X24.43580 Y6.65580
X24.43580 Y9.19580
X24.43580 Y11.73580
X24.43580 Y14.27580
X24.43580 Y16.81580
X24.43580 Y19.35580
X24.43580 Y21.89580
X24.43580 Y24.43580
X24.43580 Y26.97580
X24.43580 Y29.51580
X24.43580 Y32.05580
X24.43580 Y34.59580
X24.43580 Y37.13580
X24.43580 Y39.67580
X24.43580 Y42.21580
X24.43580 Y44.75580
X24.43580 Y47.29580
X24.43580 Y49.83580
X24.43580 Y52.37580
X49.83580 Y52.37580
X49.83580 Y49.83580
X49.83580 Y47.29580
X49.83580 Y44.75580
X49.83580 Y42.21580
X49.83580 Y39.67580
X49.83580 Y37.13580
X49.83580 Y34.59580
X49.83580 Y32.05580
X49.83580 Y29.51580
X49.83580 Y26.97580
X49.83580 Y24.43580
X49.83580 Y21.89580
X49.83580 Y19.35580
X49.83580 Y16.81580
X49.83580 Y14.27580
X49.83580 Y11.73580
X49.83580 Y9.19580
X49.83580 Y6.65580
X59.81380 Y9.19580
X59.81380 Y11.73580
X59.81380 Y19.35580
X59.81380 Y21.89580
X59.81380 Y24.43580
X59.81380 Y26.97580
X59.81380 Y29.51580
X59.81380 Y32.05580
X59.99580 Y44.75580
X59.99580 Y47.29580
X59.99580 Y49.83580

G00 Z10.000 ( All done -- retract )

M5      (Spindle off.)
M9      (Coolant off.)
M2      (Program end.)

