( pcb2gcode 1.3.2 )
( Software-independent Gcode )

G94 ( Millimeters per minute feed rate. )
G21 ( Units == Millimeters. )

G90 ( Absolute coordinates. )
S10000 ( RPM spindle speed. )
G64 P0.05080 ( set maximum deviation from commanded toolpath )
F600.00000 ( Feedrate. )

F600.00000 ( Feedrate. )
M3 ( Spindle on clockwise. )
G04 P0 ( dwell for no time -- G64 should not smooth over this point )
G00 Z5.00000 ( retract )

G00 X7.54480 Y53.51880 ( rapid move to begin. )
F300.00000
G01 Z-0.05000
G04 P0 ( dwell for no time -- G64 should not smooth over this point )
F600.00000
X7.54480 Y53.51880
X7.51940 Y52.80760
X6.70660 Y52.78220
X6.52880 Y52.88380
X6.47800 Y52.98540
X6.47800 Y53.39180
X6.57960 Y53.54420
X6.65580 Y53.54420
X6.70660 Y53.59500
X7.54480 Y53.62040
X7.54480 Y53.51880
G04 P0 ( dwell for no time -- G64 should not smooth over this point )
G00 Z5.00000 ( retract )

G00 X9.75460 Y54.20460 ( rapid move to begin. )
F300.00000
G01 Z-0.05000
G04 P0 ( dwell for no time -- G64 should not smooth over this point )
F600.00000
X9.75460 Y54.20460
X9.83080 Y54.15380
X9.85620 Y54.05220
X9.93240 Y53.97600
X9.93240 Y53.11240
X9.85620 Y53.03620
X9.83080 Y52.93460
X9.72920 Y52.83300
X9.60220 Y52.78220
X8.89100 Y52.80760
X8.86560 Y54.25540
X8.96720 Y54.30620
X9.60220 Y54.30620
X9.65300 Y54.25540
X9.72920 Y54.25540
X9.75460 Y54.20460
G04 P0 ( dwell for no time -- G64 should not smooth over this point )
G00 Z5.00000 ( retract )

G00 X13.31060 Y54.20460 ( rapid move to begin. )
F300.00000
G01 Z-0.05000
G04 P0 ( dwell for no time -- G64 should not smooth over this point )
F600.00000
X13.31060 Y54.20460
X13.38680 Y54.10300
X13.38680 Y53.82360
X12.57400 Y53.64580
X12.32000 Y53.64580
X12.32000 Y54.10300
X12.42160 Y54.25540
X12.52320 Y54.30620
X13.15820 Y54.30620
X13.20900 Y54.25540
X13.28520 Y54.25540
X13.31060 Y54.20460
G04 P0 ( dwell for no time -- G64 should not smooth over this point )
G00 Z5.00000 ( retract )

G00 X12.42160 Y43.35880 ( rapid move to begin. )
F300.00000
G01 Z-0.05000
G04 P0 ( dwell for no time -- G64 should not smooth over this point )
F600.00000
X12.42160 Y43.35880
X12.49780 Y43.20640
X12.47240 Y42.21580
X12.39620 Y42.11420
X12.24380 Y42.06340
X11.88820 Y42.06340
X11.88820 Y40.41240
X12.24380 Y40.41240
X12.39620 Y40.36160
X12.47240 Y40.26000
X12.47240 Y39.21860
X12.39620 Y39.11700
X12.24380 Y39.06620
X11.86280 Y39.06620
X11.83740 Y39.01540
X11.55800 Y39.01540
X11.53260 Y39.06620
X11.15160 Y39.06620
X10.99920 Y39.11700
X10.89760 Y39.32020
X10.89760 Y40.15840
X10.99920 Y40.36160
X11.15160 Y40.41240
X11.50720 Y40.41240
X11.50720 Y42.06340
X11.15160 Y42.06340
X10.99920 Y42.11420
X10.92300 Y42.21580
X10.89760 Y43.20640
X10.92300 Y43.30800
X10.99920 Y43.40960
X11.15160 Y43.46040
X12.24380 Y43.46040
X12.39620 Y43.40960
X12.42160 Y43.35880
G04 P0 ( dwell for no time -- G64 should not smooth over this point )
G00 Z5.00000 ( retract )

G00 X12.42160 Y38.25340 ( rapid move to begin. )
F300.00000
G01 Z-0.05000
G04 P0 ( dwell for no time -- G64 should not smooth over this point )
F600.00000
X12.42160 Y38.25340
X12.49780 Y38.10100
X12.49780 Y37.26280
X12.39620 Y37.05960
X12.14220 Y37.00880
X16.15540 Y32.99560
X24.71520 Y32.99560
X24.86760 Y32.94480
X24.99460 Y32.81780
X25.04540 Y32.81780
X25.17240 Y32.69080
X25.22320 Y32.53840
X25.29940 Y32.46220
X25.32480 Y31.82720
X25.27400 Y31.62400
X25.22320 Y31.59860
X25.17240 Y31.44620
X25.04540 Y31.31920
X24.99460 Y31.31920
X24.86760 Y31.19220
X24.71520 Y31.14140
X24.08020 Y31.14140
X23.92780 Y31.19220
X23.62300 Y31.44620
X23.59760 Y31.54780
X23.49600 Y31.67480
X23.47060 Y32.30980
X23.49600 Y32.46220
X23.59760 Y32.61460
X15.90140 Y32.61460
X11.53260 Y37.00880
X11.15160 Y37.00880
X10.94840 Y37.11040
X10.89760 Y37.26280
X10.89760 Y38.10100
X10.99920 Y38.30420
X11.15160 Y38.35500
X12.24380 Y38.35500
X12.39620 Y38.30420
X12.42160 Y38.25340
G04 P0 ( dwell for no time -- G64 should not smooth over this point )
G00 Z5.00000 ( retract )

G00 X17.50160 Y38.25340 ( rapid move to begin. )
F300.00000
G01 Z-0.05000
G04 P0 ( dwell for no time -- G64 should not smooth over this point )
F600.00000
X17.50160 Y38.25340
X17.57780 Y38.10100
X17.57780 Y37.26280
X17.47620 Y37.05960
X17.22220 Y37.00880
X18.69540 Y35.53560
X24.71520 Y35.53560
X24.86760 Y35.48480
X24.99460 Y35.35780
X25.04540 Y35.35780
X25.17240 Y35.23080
X25.22320 Y35.07840
X25.29940 Y35.00220
X25.32480 Y34.36720
X25.27400 Y34.16400
X25.22320 Y34.13860
X25.17240 Y33.98620
X25.04540 Y33.85920
X24.99460 Y33.85920
X24.86760 Y33.73220
X24.71520 Y33.68140
X24.08020 Y33.68140
X23.92780 Y33.73220
X23.62300 Y33.98620
X23.59760 Y34.08780
X23.49600 Y34.21480
X23.47060 Y34.84980
X23.49600 Y35.00220
X23.59760 Y35.15460
X18.44140 Y35.15460
X16.61260 Y37.00880
X16.23160 Y37.00880
X16.07920 Y37.05960
X16.00300 Y37.16120
X15.97760 Y38.10100
X16.07920 Y38.30420
X16.23160 Y38.35500
X17.32380 Y38.35500
X17.47620 Y38.30420
X17.50160 Y38.25340
G04 P0 ( dwell for no time -- G64 should not smooth over this point )
G00 Z5.00000 ( retract )

G00 X17.50160 Y43.35880 ( rapid move to begin. )
F300.00000
G01 Z-0.05000
G04 P0 ( dwell for no time -- G64 should not smooth over this point )
F600.00000
X17.50160 Y43.35880
X17.57780 Y43.20640
X17.55240 Y42.21580
X17.47620 Y42.11420
X17.32380 Y42.06340
X16.96820 Y42.06340
X16.96820 Y40.41240
X17.32380 Y40.41240
X17.47620 Y40.36160
X17.55240 Y40.26000
X17.57780 Y39.32020
X17.55240 Y39.21860
X17.47620 Y39.11700
X17.32380 Y39.06620
X16.94280 Y39.06620
X16.91740 Y39.01540
X16.63800 Y39.01540
X16.61260 Y39.06620
X16.23160 Y39.06620
X16.07920 Y39.11700
X15.97760 Y39.32020
X15.97760 Y40.15840
X16.07920 Y40.36160
X16.23160 Y40.41240
X16.58720 Y40.41240
X16.58720 Y42.06340
X16.23160 Y42.06340
X16.07920 Y42.11420
X16.00300 Y42.21580
X16.00300 Y43.30800
X16.07920 Y43.40960
X16.23160 Y43.46040
X17.32380 Y43.46040
X17.47620 Y43.40960
X17.50160 Y43.35880
G04 P0 ( dwell for no time -- G64 should not smooth over this point )
G00 Z5.00000 ( retract )

G00 X24.89300 Y43.05400 ( rapid move to begin. )
F300.00000
G01 Z-0.05000
G04 P0 ( dwell for no time -- G64 should not smooth over this point )
F600.00000
X24.89300 Y43.05400
X24.94380 Y43.05400
X25.17240 Y42.85080
X25.22320 Y42.69840
X25.29940 Y42.62220
X25.32480 Y41.98720
X25.27400 Y41.78400
X25.22320 Y41.75860
X25.17240 Y41.60620
X25.04540 Y41.47920
X24.99460 Y41.47920
X24.86760 Y41.35220
X24.71520 Y41.30140
X24.08020 Y41.30140
X23.92780 Y41.35220
X23.62300 Y41.60620
X23.59760 Y41.70780
X23.49600 Y41.83480
X23.47060 Y42.46980
X23.54680 Y42.72380
X23.75000 Y42.97780
X23.80080 Y42.97780
X23.92780 Y43.10480
X24.08020 Y43.15560
X24.71520 Y43.15560
X24.86760 Y43.10480
X24.89300 Y43.05400
G04 P0 ( dwell for no time -- G64 should not smooth over this point )
G00 Z5.00000 ( retract )

G00 X24.89300 Y40.51400 ( rapid move to begin. )
F300.00000
G01 Z-0.05000
G04 P0 ( dwell for no time -- G64 should not smooth over this point )
F600.00000
X24.89300 Y40.51400
X24.94380 Y40.51400
X25.17240 Y40.31080
X25.22320 Y40.15840
X25.29940 Y40.08220
X25.32480 Y39.44720
X25.27400 Y39.24400
X25.22320 Y39.21860
X25.17240 Y39.06620
X25.04540 Y38.93920
X24.99460 Y38.93920
X24.86760 Y38.81220
X24.71520 Y38.76140
X24.08020 Y38.76140
X23.92780 Y38.81220
X23.62300 Y39.06620
X23.59760 Y39.16780
X23.49600 Y39.29480
X23.47060 Y39.92980
X23.54680 Y40.18380
X23.75000 Y40.43780
X23.80080 Y40.43780
X23.92780 Y40.56480
X24.08020 Y40.61560
X24.71520 Y40.61560
X24.86760 Y40.56480
X24.89300 Y40.51400
G04 P0 ( dwell for no time -- G64 should not smooth over this point )
G00 Z5.00000 ( retract )

G00 X24.89300 Y37.97400 ( rapid move to begin. )
F300.00000
G01 Z-0.05000
G04 P0 ( dwell for no time -- G64 should not smooth over this point )
F600.00000
X24.89300 Y37.97400
X24.94380 Y37.97400
X25.17240 Y37.77080
X25.22320 Y37.61840
X25.29940 Y37.54220
X25.32480 Y36.90720
X25.27400 Y36.70400
X25.22320 Y36.67860
X25.17240 Y36.52620
X25.04540 Y36.39920
X24.99460 Y36.39920
X24.86760 Y36.27220
X24.71520 Y36.22140
X24.08020 Y36.22140
X23.92780 Y36.27220
X23.62300 Y36.52620
X23.59760 Y36.62780
X23.49600 Y36.75480
X23.47060 Y37.38980
X23.54680 Y37.64380
X23.75000 Y37.89780
X23.80080 Y37.89780
X23.92780 Y38.02480
X24.08020 Y38.07560
X24.71520 Y38.07560
X24.86760 Y38.02480
X24.89300 Y37.97400
G04 P0 ( dwell for no time -- G64 should not smooth over this point )
G00 Z5.00000 ( retract )

G00 X32.20820 Y38.32960 ( rapid move to begin. )
F300.00000
G01 Z-0.05000
G04 P0 ( dwell for no time -- G64 should not smooth over this point )
F600.00000
X32.20820 Y38.32960
X32.20820 Y37.84700
X32.08120 Y37.66920
X32.03040 Y37.66920
X31.95420 Y37.59300
X31.21760 Y37.59300
X31.06520 Y37.69460
X30.98900 Y37.84700
X31.01440 Y38.43120
X32.15740 Y38.43120
X32.20820 Y38.32960
G04 P0 ( dwell for no time -- G64 should not smooth over this point )
G00 Z5.00000 ( retract )

G00 X32.20820 Y40.13300 ( rapid move to begin. )
F300.00000
G01 Z-0.05000
G04 P0 ( dwell for no time -- G64 should not smooth over this point )
F600.00000
X32.20820 Y40.13300
X32.20820 Y39.54880
X32.05580 Y39.39640
X31.70020 Y39.39640
X31.54780 Y39.54880
X31.54780 Y40.23460
X32.15740 Y40.23460
X32.20820 Y40.13300
G04 P0 ( dwell for no time -- G64 should not smooth over this point )
G00 Z5.00000 ( retract )

G00 X35.30700 Y43.28260 ( rapid move to begin. )
F300.00000
G01 Z-0.05000
G04 P0 ( dwell for no time -- G64 should not smooth over this point )
F600.00000
X35.30700 Y43.28260
X35.35780 Y43.25720
X35.40860 Y43.13020
X35.40860 Y42.69840
X35.35780 Y42.57140
X35.23080 Y42.46980
X34.44340 Y42.44440
X34.24020 Y42.59680
X34.21480 Y43.15560
X34.31640 Y43.30800
X34.41800 Y43.33340
X34.44340 Y43.38420
X35.18000 Y43.38420
X35.30700 Y43.28260
G04 P0 ( dwell for no time -- G64 should not smooth over this point )
G00 Z5.00000 ( retract )

G00 X32.20820 Y44.42560 ( rapid move to begin. )
F300.00000
G01 Z-0.05000
G04 P0 ( dwell for no time -- G64 should not smooth over this point )
F600.00000
X32.20820 Y44.42560
X32.20820 Y43.94300
X32.13200 Y43.81600
X31.95420 Y43.68900
X31.21760 Y43.68900
X31.06520 Y43.79060
X30.98900 Y43.94300
X31.01440 Y44.52720
X32.15740 Y44.52720
X32.20820 Y44.42560
G04 P0 ( dwell for no time -- G64 should not smooth over this point )
G00 Z5.00000 ( retract )

G00 X32.08120 Y47.85460 ( rapid move to begin. )
F300.00000
G01 Z-0.05000
G04 P0 ( dwell for no time -- G64 should not smooth over this point )
F600.00000
X32.08120 Y47.85460
X32.15740 Y47.80380
X32.20820 Y47.70220
X32.20820 Y47.27040
X32.08120 Y47.09260
X32.03040 Y47.09260
X31.95420 Y47.01640
X31.21760 Y47.01640
X31.06520 Y47.11800
X30.98900 Y47.27040
X30.98900 Y47.70220
X31.14140 Y47.90540
X31.19220 Y47.90540
X31.21760 Y47.95620
X31.95420 Y47.95620
X32.08120 Y47.85460
G04 P0 ( dwell for no time -- G64 should not smooth over this point )
G00 Z5.00000 ( retract )

G00 X38.63440 Y48.89600 ( rapid move to begin. )
F300.00000
G01 Z-0.05000
G04 P0 ( dwell for no time -- G64 should not smooth over this point )
F600.00000
X38.63440 Y48.89600
X38.63440 Y48.41340
X38.55820 Y48.26100
X38.40580 Y48.15940
X37.66920 Y48.15940
X37.59300 Y48.23560
X37.54220 Y48.23560
X37.41520 Y48.41340
X37.41520 Y48.94680
X37.46600 Y48.99760
X38.60900 Y48.99760
X38.63440 Y48.89600
G04 P0 ( dwell for no time -- G64 should not smooth over this point )
G00 Z5.00000 ( retract )

G00 X41.04740 Y41.75860 ( rapid move to begin. )
F300.00000
G01 Z-0.05000
G04 P0 ( dwell for no time -- G64 should not smooth over this point )
F600.00000
X41.04740 Y41.75860
X41.14900 Y41.27600
X41.14900 Y41.02200
X40.71720 Y41.04740
X40.64100 Y41.17440
X40.66640 Y41.78400
X40.79340 Y41.86020
X41.02200 Y41.86020
X41.04740 Y41.75860
G04 P0 ( dwell for no time -- G64 should not smooth over this point )
G00 Z5.00000 ( retract )

G00 X41.73320 Y35.28160 ( rapid move to begin. )
F300.00000
G01 Z-0.05000
G04 P0 ( dwell for no time -- G64 should not smooth over this point )
F600.00000
X41.73320 Y35.28160
X41.80940 Y35.23080
X41.86020 Y35.12920
X41.86020 Y34.69740
X41.75860 Y34.51960
X41.60620 Y34.44340
X40.89500 Y34.44340
X40.71720 Y34.54500
X40.64100 Y34.69740
X40.64100 Y35.12920
X40.79340 Y35.33240
X40.89500 Y35.38320
X41.60620 Y35.38320
X41.73320 Y35.28160
G04 P0 ( dwell for no time -- G64 should not smooth over this point )
G00 Z5.00000 ( retract )

G00 X41.73320 Y32.23360 ( rapid move to begin. )
F300.00000
G01 Z-0.05000
G04 P0 ( dwell for no time -- G64 should not smooth over this point )
F600.00000
X41.73320 Y32.23360
X41.80940 Y32.18280
X41.86020 Y32.08120
X41.86020 Y31.54780
X41.80940 Y31.49700
X40.69180 Y31.49700
X40.64100 Y31.54780
X40.64100 Y32.08120
X40.79340 Y32.28440
X40.89500 Y32.33520
X41.60620 Y32.33520
X41.73320 Y32.23360
G04 P0 ( dwell for no time -- G64 should not smooth over this point )
G00 Z5.00000 ( retract )

G00 X41.04740 Y29.18560 ( rapid move to begin. )
F300.00000
G01 Z-0.05000
G04 P0 ( dwell for no time -- G64 should not smooth over this point )
F600.00000
X41.04740 Y29.18560
X41.14900 Y28.70300
X41.14900 Y28.44900
X40.71720 Y28.47440
X40.64100 Y28.60140
X40.66640 Y29.21100
X40.79340 Y29.28720
X41.02200 Y29.28720
X41.04740 Y29.18560
G04 P0 ( dwell for no time -- G64 should not smooth over this point )
G00 Z5.00000 ( retract )

G00 X38.63440 Y28.14420 ( rapid move to begin. )
F300.00000
G01 Z-0.05000
G04 P0 ( dwell for no time -- G64 should not smooth over this point )
F600.00000
X38.63440 Y28.14420
X38.63440 Y27.63620
X38.58360 Y27.61080
X38.53280 Y27.48380
X38.48200 Y27.48380
X38.40580 Y27.40760
X37.66920 Y27.40760
X37.59300 Y27.48380
X37.54220 Y27.48380
X37.41520 Y27.63620
X37.41520 Y28.19500
X37.46600 Y28.24580
X38.60900 Y28.24580
X38.63440 Y28.14420
G04 P0 ( dwell for no time -- G64 should not smooth over this point )
G00 Z5.00000 ( retract )

G00 X38.63440 Y25.09620 ( rapid move to begin. )
F300.00000
G01 Z-0.05000
G04 P0 ( dwell for no time -- G64 should not smooth over this point )
F600.00000
X38.63440 Y25.09620
X38.60900 Y24.43580
X38.48200 Y24.35960
X38.07560 Y24.38500
X37.99940 Y24.51200
X37.99940 Y25.19780
X38.60900 Y25.19780
X38.63440 Y25.09620
G04 P0 ( dwell for no time -- G64 should not smooth over this point )
G00 Z5.00000 ( retract )

G00 X41.73320 Y23.36900 ( rapid move to begin. )
F300.00000
G01 Z-0.05000
G04 P0 ( dwell for no time -- G64 should not smooth over this point )
F600.00000
X41.73320 Y23.36900
X41.86020 Y23.24200
X41.86020 Y22.68320
X41.80940 Y22.63240
X40.69180 Y22.63240
X40.64100 Y22.68320
X40.64100 Y23.24200
X40.79340 Y23.41980
X40.89500 Y23.47060
X41.60620 Y23.47060
X41.73320 Y23.36900
G04 P0 ( dwell for no time -- G64 should not smooth over this point )
G00 Z5.00000 ( retract )

G00 X34.62120 Y23.26740 ( rapid move to begin. )
F300.00000
G01 Z-0.05000
G04 P0 ( dwell for no time -- G64 should not smooth over this point )
F600.00000
X34.62120 Y23.26740
X34.72280 Y22.78480
X34.72280 Y22.55620
X34.34180 Y22.55620
X34.21480 Y22.68320
X34.21480 Y23.24200
X34.34180 Y23.36900
X34.59580 Y23.36900
X34.62120 Y23.26740
G04 P0 ( dwell for no time -- G64 should not smooth over this point )
G00 Z5.00000 ( retract )

G00 X34.62120 Y26.03600 ( rapid move to begin. )
F300.00000
G01 Z-0.05000
G04 P0 ( dwell for no time -- G64 should not smooth over this point )
F600.00000
X34.62120 Y26.03600
X34.72280 Y25.55340
X34.72280 Y25.29940
X34.34180 Y25.29940
X34.21480 Y25.45180
X34.24020 Y26.06140
X34.34180 Y26.13760
X34.59580 Y26.13760
X34.62120 Y26.03600
G04 P0 ( dwell for no time -- G64 should not smooth over this point )
G00 Z5.00000 ( retract )

G00 X32.08120 Y24.99460 ( rapid move to begin. )
F300.00000
G01 Z-0.05000
G04 P0 ( dwell for no time -- G64 should not smooth over this point )
F600.00000
X32.08120 Y24.99460
X32.15740 Y24.94380
X32.20820 Y24.84220
X32.20820 Y24.41040
X32.15740 Y24.38500
X32.13200 Y24.28340
X32.00500 Y24.18180
X31.21760 Y24.15640
X31.01440 Y24.35960
X30.98900 Y24.84220
X31.03980 Y24.94380
X31.21760 Y25.09620
X31.95420 Y25.09620
X32.08120 Y24.99460
G04 P0 ( dwell for no time -- G64 should not smooth over this point )
G00 Z5.00000 ( retract )

G00 X32.20820 Y31.09060 ( rapid move to begin. )
F300.00000
G01 Z-0.05000
G04 P0 ( dwell for no time -- G64 should not smooth over this point )
F600.00000
X32.20820 Y31.09060
X32.20820 Y30.50640
X32.15740 Y30.48100
X32.15740 Y30.43020
X32.05580 Y30.35400
X31.64940 Y30.37940
X31.54780 Y30.50640
X31.54780 Y31.19220
X32.15740 Y31.19220
X32.20820 Y31.09060
G04 P0 ( dwell for no time -- G64 should not smooth over this point )
G00 Z5.00000 ( retract )

G00 X35.30700 Y31.95420 ( rapid move to begin. )
F300.00000
G01 Z-0.05000
G04 P0 ( dwell for no time -- G64 should not smooth over this point )
F600.00000
X35.30700 Y31.95420
X35.35780 Y31.92880
X35.40860 Y31.80180
X35.40860 Y31.37000
X35.35780 Y31.24300
X35.23080 Y31.14140
X34.44340 Y31.11600
X34.24020 Y31.26840
X34.21480 Y31.82720
X34.31640 Y31.97960
X34.41800 Y32.00500
X34.44340 Y32.05580
X35.18000 Y32.05580
X35.30700 Y31.95420
G04 P0 ( dwell for no time -- G64 should not smooth over this point )
G00 Z5.00000 ( retract )

G00 X38.63440 Y32.03040 ( rapid move to begin. )
F300.00000
G01 Z-0.05000
G04 P0 ( dwell for no time -- G64 should not smooth over this point )
F600.00000
X38.63440 Y32.03040
X38.60900 Y31.39540
X38.48200 Y31.31920
X38.07560 Y31.34460
X37.99940 Y31.44620
X37.99940 Y32.13200
X38.60900 Y32.13200
X38.63440 Y32.03040
G04 P0 ( dwell for no time -- G64 should not smooth over this point )
G00 Z5.00000 ( retract )

G00 X37.82160 Y35.07840 ( rapid move to begin. )
F300.00000
G01 Z-0.05000
G04 P0 ( dwell for no time -- G64 should not smooth over this point )
F600.00000
X37.82160 Y35.07840
X37.94860 Y34.59580
X37.94860 Y34.36720
X37.56760 Y34.36720
X37.41520 Y34.49420
X37.41520 Y35.05300
X37.56760 Y35.18000
X37.79620 Y35.18000
X37.82160 Y35.07840
G04 P0 ( dwell for no time -- G64 should not smooth over this point )
G00 Z5.00000 ( retract )

G00 X31.39540 Y34.13860 ( rapid move to begin. )
F300.00000
G01 Z-0.05000
G04 P0 ( dwell for no time -- G64 should not smooth over this point )
F600.00000
X31.39540 Y34.13860
X31.49700 Y33.65600
X31.49700 Y33.40200
X31.06520 Y33.42740
X30.98900 Y33.55440
X31.01440 Y34.16400
X31.14140 Y34.24020
X31.37000 Y34.24020
X31.39540 Y34.13860
G04 P0 ( dwell for no time -- G64 should not smooth over this point )
G00 Z5.00000 ( retract )

G00 X24.89300 Y27.81400 ( rapid move to begin. )
F300.00000
G01 Z-0.05000
G04 P0 ( dwell for no time -- G64 should not smooth over this point )
F600.00000
X24.89300 Y27.81400
X24.94380 Y27.81400
X25.17240 Y27.61080
X25.22320 Y27.45840
X25.29940 Y27.38220
X25.32480 Y26.74720
X25.27400 Y26.54400
X25.22320 Y26.51860
X25.17240 Y26.36620
X25.04540 Y26.23920
X24.99460 Y26.23920
X24.86760 Y26.11220
X24.71520 Y26.06140
X24.08020 Y26.06140
X23.92780 Y26.11220
X23.62300 Y26.36620
X23.59760 Y26.46780
X23.49600 Y26.59480
X23.47060 Y27.22980
X23.54680 Y27.48380
X23.75000 Y27.73780
X23.80080 Y27.73780
X23.92780 Y27.86480
X24.08020 Y27.91560
X24.71520 Y27.91560
X24.86760 Y27.86480
X24.89300 Y27.81400
G04 P0 ( dwell for no time -- G64 should not smooth over this point )
G00 Z5.00000 ( retract )

G00 X24.89300 Y25.27400 ( rapid move to begin. )
F300.00000
G01 Z-0.05000
G04 P0 ( dwell for no time -- G64 should not smooth over this point )
F600.00000
X24.89300 Y25.27400
X24.94380 Y25.27400
X25.17240 Y25.07080
X25.22320 Y24.91840
X25.29940 Y24.84220
X25.32480 Y24.20720
X25.27400 Y24.00400
X25.22320 Y23.97860
X25.17240 Y23.82620
X25.04540 Y23.69920
X24.99460 Y23.69920
X24.86760 Y23.57220
X24.71520 Y23.52140
X24.08020 Y23.52140
X23.92780 Y23.57220
X23.62300 Y23.82620
X23.59760 Y23.92780
X23.49600 Y24.05480
X23.47060 Y24.68980
X23.54680 Y24.94380
X23.75000 Y25.19780
X23.80080 Y25.19780
X23.92780 Y25.32480
X24.08020 Y25.37560
X24.71520 Y25.37560
X24.86760 Y25.32480
X24.89300 Y25.27400
G04 P0 ( dwell for no time -- G64 should not smooth over this point )
G00 Z5.00000 ( retract )

G00 X24.89300 Y22.73400 ( rapid move to begin. )
F300.00000
G01 Z-0.05000
G04 P0 ( dwell for no time -- G64 should not smooth over this point )
F600.00000
X24.89300 Y22.73400
X24.94380 Y22.73400
X25.17240 Y22.53080
X25.22320 Y22.37840
X25.29940 Y22.30220
X25.32480 Y21.66720
X25.27400 Y21.46400
X25.22320 Y21.43860
X25.17240 Y21.28620
X25.04540 Y21.15920
X24.99460 Y21.15920
X24.86760 Y21.03220
X24.71520 Y20.98140
X24.08020 Y20.98140
X23.92780 Y21.03220
X23.62300 Y21.28620
X23.59760 Y21.38780
X23.49600 Y21.51480
X23.47060 Y22.14980
X23.54680 Y22.40380
X23.75000 Y22.65780
X23.80080 Y22.65780
X23.92780 Y22.78480
X24.08020 Y22.83560
X24.71520 Y22.83560
X24.86760 Y22.78480
X24.89300 Y22.73400
G04 P0 ( dwell for no time -- G64 should not smooth over this point )
G00 Z5.00000 ( retract )

G00 X24.89300 Y20.19400 ( rapid move to begin. )
F300.00000
G01 Z-0.05000
G04 P0 ( dwell for no time -- G64 should not smooth over this point )
F600.00000
X24.89300 Y20.19400
X24.94380 Y20.19400
X25.17240 Y19.99080
X25.22320 Y19.83840
X25.29940 Y19.76220
X25.32480 Y19.12720
X25.27400 Y18.92400
X25.22320 Y18.89860
X25.17240 Y18.74620
X25.04540 Y18.61920
X24.99460 Y18.61920
X24.86760 Y18.49220
X24.71520 Y18.44140
X24.08020 Y18.44140
X23.92780 Y18.49220
X23.62300 Y18.74620
X23.59760 Y18.84780
X23.49600 Y18.97480
X23.47060 Y19.60980
X23.54680 Y19.86380
X23.75000 Y20.11780
X23.80080 Y20.11780
X23.92780 Y20.24480
X24.08020 Y20.29560
X24.71520 Y20.29560
X24.86760 Y20.24480
X24.89300 Y20.19400
G04 P0 ( dwell for no time -- G64 should not smooth over this point )
G00 Z5.00000 ( retract )

G00 X24.89300 Y17.65400 ( rapid move to begin. )
F300.00000
G01 Z-0.05000
G04 P0 ( dwell for no time -- G64 should not smooth over this point )
F600.00000
X24.89300 Y17.65400
X24.94380 Y17.65400
X25.17240 Y17.45080
X25.22320 Y17.29840
X25.29940 Y17.22220
X25.32480 Y16.58720
X25.27400 Y16.38400
X25.22320 Y16.35860
X25.17240 Y16.20620
X25.04540 Y16.07920
X24.99460 Y16.07920
X24.86760 Y15.95220
X24.71520 Y15.90140
X24.08020 Y15.90140
X23.92780 Y15.95220
X23.62300 Y16.20620
X23.59760 Y16.30780
X23.49600 Y16.43480
X23.47060 Y17.06980
X23.54680 Y17.32380
X23.75000 Y17.57780
X23.80080 Y17.57780
X23.92780 Y17.70480
X24.08020 Y17.75560
X24.71520 Y17.75560
X24.86760 Y17.70480
X24.89300 Y17.65400
G04 P0 ( dwell for no time -- G64 should not smooth over this point )
G00 Z5.00000 ( retract )

G00 X24.89300 Y15.11400 ( rapid move to begin. )
F300.00000
G01 Z-0.05000
G04 P0 ( dwell for no time -- G64 should not smooth over this point )
F600.00000
X24.89300 Y15.11400
X24.94380 Y15.11400
X25.17240 Y14.91080
X25.22320 Y14.75840
X25.29940 Y14.68220
X25.32480 Y14.04720
X25.27400 Y13.84400
X25.22320 Y13.81860
X25.17240 Y13.66620
X25.04540 Y13.53920
X24.99460 Y13.53920
X24.86760 Y13.41220
X24.71520 Y13.36140
X24.08020 Y13.36140
X23.92780 Y13.41220
X23.62300 Y13.66620
X23.59760 Y13.76780
X23.49600 Y13.89480
X23.47060 Y14.52980
X23.54680 Y14.78380
X23.75000 Y15.03780
X23.80080 Y15.03780
X23.92780 Y15.16480
X24.08020 Y15.21560
X24.71520 Y15.21560
X24.86760 Y15.16480
X24.89300 Y15.11400
G04 P0 ( dwell for no time -- G64 should not smooth over this point )
G00 Z5.00000 ( retract )

G00 X24.89300 Y12.57400 ( rapid move to begin. )
F300.00000
G01 Z-0.05000
G04 P0 ( dwell for no time -- G64 should not smooth over this point )
F600.00000
X24.89300 Y12.57400
X24.94380 Y12.57400
X25.17240 Y12.37080
X25.22320 Y12.21840
X25.29940 Y12.14220
X25.32480 Y11.50720
X25.27400 Y11.30400
X25.22320 Y11.27860
X25.17240 Y11.12620
X25.04540 Y10.99920
X24.99460 Y10.99920
X24.86760 Y10.87220
X24.71520 Y10.82140
X24.08020 Y10.82140
X23.92780 Y10.87220
X23.62300 Y11.12620
X23.59760 Y11.22780
X23.49600 Y11.35480
X23.47060 Y11.98980
X23.54680 Y12.24380
X23.75000 Y12.49780
X23.80080 Y12.49780
X23.92780 Y12.62480
X24.08020 Y12.67560
X24.71520 Y12.67560
X24.86760 Y12.62480
X24.89300 Y12.57400
G04 P0 ( dwell for no time -- G64 should not smooth over this point )
G00 Z5.00000 ( retract )

G00 X24.89300 Y10.03400 ( rapid move to begin. )
F300.00000
G01 Z-0.05000
G04 P0 ( dwell for no time -- G64 should not smooth over this point )
F600.00000
X24.89300 Y10.03400
X24.94380 Y10.03400
X25.17240 Y9.83080
X25.22320 Y9.67840
X25.29940 Y9.60220
X25.32480 Y8.96720
X25.27400 Y8.76400
X25.22320 Y8.73860
X25.17240 Y8.58620
X25.04540 Y8.45920
X24.99460 Y8.45920
X24.86760 Y8.33220
X24.71520 Y8.28140
X24.08020 Y8.28140
X23.92780 Y8.33220
X23.62300 Y8.58620
X23.59760 Y8.68780
X23.49600 Y8.81480
X23.47060 Y9.44980
X23.54680 Y9.70380
X23.75000 Y9.95780
X23.80080 Y9.95780
X23.92780 Y10.08480
X24.08020 Y10.13560
X24.71520 Y10.13560
X24.86760 Y10.08480
X24.89300 Y10.03400
G04 P0 ( dwell for no time -- G64 should not smooth over this point )
G00 Z5.00000 ( retract )

G00 X24.89300 Y7.49400 ( rapid move to begin. )
F300.00000
G01 Z-0.05000
G04 P0 ( dwell for no time -- G64 should not smooth over this point )
F600.00000
X24.89300 Y7.49400
X24.94380 Y7.49400
X25.17240 Y7.29080
X25.22320 Y7.13840
X25.29940 Y7.06220
X25.32480 Y6.42720
X25.27400 Y6.22400
X25.22320 Y6.19860
X25.17240 Y6.04620
X25.04540 Y5.91920
X24.99460 Y5.91920
X24.86760 Y5.79220
X24.71520 Y5.74140
X24.08020 Y5.74140
X23.92780 Y5.79220
X23.62300 Y6.04620
X23.59760 Y6.14780
X23.49600 Y6.27480
X23.47060 Y6.90980
X23.54680 Y7.16380
X23.75000 Y7.41780
X23.80080 Y7.41780
X23.92780 Y7.54480
X24.08020 Y7.59560
X24.71520 Y7.59560
X24.86760 Y7.54480
X24.89300 Y7.49400
G04 P0 ( dwell for no time -- G64 should not smooth over this point )
G00 Z5.00000 ( retract )

G00 X39.04080 Y7.49400 ( rapid move to begin. )
F300.00000
G01 Z-0.05000
G04 P0 ( dwell for no time -- G64 should not smooth over this point )
F600.00000
X39.04080 Y7.49400
X39.09160 Y7.44320
X39.09160 Y7.08760
X39.04080 Y6.98600
X38.93920 Y6.93520
X38.35500 Y6.93520
X38.35500 Y7.59560
X38.88840 Y7.59560
X39.01540 Y7.54480
X39.04080 Y7.49400
G04 P0 ( dwell for no time -- G64 should not smooth over this point )
G00 Z5.00000 ( retract )

G00 X38.99000 Y8.20520 ( rapid move to begin. )
F300.00000
G01 Z-0.05000
G04 P0 ( dwell for no time -- G64 should not smooth over this point )
F600.00000
X38.99000 Y8.20520
X39.01540 Y7.84960
X38.96460 Y7.74800
X38.35500 Y7.72260
X38.35500 Y8.30680
X38.88840 Y8.30680
X38.99000 Y8.20520
G04 P0 ( dwell for no time -- G64 should not smooth over this point )
G00 Z5.00000 ( retract )

G00 X50.29300 Y10.03400 ( rapid move to begin. )
F300.00000
G01 Z-0.05000
G04 P0 ( dwell for no time -- G64 should not smooth over this point )
F600.00000
X50.29300 Y10.03400
X50.34380 Y10.03400
X50.57240 Y9.83080
X50.62320 Y9.67840
X50.69940 Y9.60220
X50.72480 Y8.96720
X50.67400 Y8.76400
X50.62320 Y8.73860
X50.57240 Y8.58620
X50.44540 Y8.45920
X50.39460 Y8.45920
X50.26760 Y8.33220
X50.11520 Y8.28140
X49.48020 Y8.28140
X49.32780 Y8.33220
X49.02300 Y8.58620
X48.99760 Y8.68780
X48.89600 Y8.81480
X48.87060 Y9.44980
X48.94680 Y9.70380
X49.15000 Y9.95780
X49.20080 Y9.95780
X49.32780 Y10.08480
X49.48020 Y10.13560
X50.11520 Y10.13560
X50.26760 Y10.08480
X50.29300 Y10.03400
G04 P0 ( dwell for no time -- G64 should not smooth over this point )
G00 Z5.00000 ( retract )

G00 X50.29300 Y12.57400 ( rapid move to begin. )
F300.00000
G01 Z-0.05000
G04 P0 ( dwell for no time -- G64 should not smooth over this point )
F600.00000
X50.29300 Y12.57400
X50.34380 Y12.57400
X50.57240 Y12.37080
X50.62320 Y12.21840
X50.69940 Y12.14220
X50.72480 Y11.50720
X50.67400 Y11.30400
X50.62320 Y11.27860
X50.57240 Y11.12620
X50.44540 Y10.99920
X50.39460 Y10.99920
X50.26760 Y10.87220
X50.11520 Y10.82140
X49.48020 Y10.82140
X49.32780 Y10.87220
X49.02300 Y11.12620
X48.99760 Y11.22780
X48.89600 Y11.35480
X48.87060 Y11.98980
X48.94680 Y12.24380
X49.15000 Y12.49780
X49.20080 Y12.49780
X49.32780 Y12.62480
X49.48020 Y12.67560
X50.11520 Y12.67560
X50.26760 Y12.62480
X50.29300 Y12.57400
G04 P0 ( dwell for no time -- G64 should not smooth over this point )
G00 Z5.00000 ( retract )

G00 X50.29300 Y15.11400 ( rapid move to begin. )
F300.00000
G01 Z-0.05000
G04 P0 ( dwell for no time -- G64 should not smooth over this point )
F600.00000
X50.29300 Y15.11400
X50.34380 Y15.11400
X50.57240 Y14.91080
X50.62320 Y14.75840
X50.69940 Y14.68220
X50.72480 Y14.04720
X50.67400 Y13.84400
X50.62320 Y13.81860
X50.57240 Y13.66620
X50.44540 Y13.53920
X50.39460 Y13.53920
X50.26760 Y13.41220
X50.11520 Y13.36140
X49.48020 Y13.36140
X49.32780 Y13.41220
X49.02300 Y13.66620
X48.99760 Y13.76780
X48.89600 Y13.89480
X48.87060 Y14.52980
X48.94680 Y14.78380
X49.15000 Y15.03780
X49.20080 Y15.03780
X49.32780 Y15.16480
X49.48020 Y15.21560
X50.11520 Y15.21560
X50.26760 Y15.16480
X50.29300 Y15.11400
G04 P0 ( dwell for no time -- G64 should not smooth over this point )
G00 Z5.00000 ( retract )

G00 X50.29300 Y17.65400 ( rapid move to begin. )
F300.00000
G01 Z-0.05000
G04 P0 ( dwell for no time -- G64 should not smooth over this point )
F600.00000
X50.29300 Y17.65400
X50.34380 Y17.65400
X50.57240 Y17.45080
X50.62320 Y17.29840
X50.69940 Y17.22220
X50.72480 Y16.58720
X50.67400 Y16.38400
X50.62320 Y16.35860
X50.57240 Y16.20620
X50.44540 Y16.07920
X50.39460 Y16.07920
X50.26760 Y15.95220
X50.11520 Y15.90140
X49.48020 Y15.90140
X49.32780 Y15.95220
X49.02300 Y16.20620
X48.99760 Y16.30780
X48.89600 Y16.43480
X48.87060 Y17.06980
X48.94680 Y17.32380
X49.15000 Y17.57780
X49.20080 Y17.57780
X49.32780 Y17.70480
X49.48020 Y17.75560
X50.11520 Y17.75560
X50.26760 Y17.70480
X50.29300 Y17.65400
G04 P0 ( dwell for no time -- G64 should not smooth over this point )
G00 Z5.00000 ( retract )

G00 X57.63360 Y22.73400 ( rapid move to begin. )
F300.00000
G01 Z-0.05000
G04 P0 ( dwell for no time -- G64 should not smooth over this point )
F600.00000
X57.63360 Y22.73400
X58.26860 Y22.09900
X58.85280 Y22.09900
X58.87820 Y22.30220
X58.97980 Y22.42920
X59.00520 Y22.53080
X59.31000 Y22.78480
X59.46240 Y22.83560
X60.09740 Y22.83560
X60.24980 Y22.78480
X60.55460 Y22.53080
X60.60540 Y22.37840
X60.68160 Y22.30220
X60.70700 Y21.66720
X60.68160 Y21.51480
X60.60540 Y21.43860
X60.55460 Y21.28620
X60.24980 Y21.03220
X60.09740 Y20.98140
X59.46240 Y20.98140
X59.23380 Y21.08300
X59.00520 Y21.28620
X58.97980 Y21.38780
X58.87820 Y21.51480
X58.85280 Y21.71800
X58.01460 Y21.71800
X57.30340 Y22.45460
X50.59780 Y22.45460
X50.69940 Y22.30220
X50.72480 Y22.14980
X50.69940 Y21.51480
X50.62320 Y21.43860
X50.57240 Y21.28620
X50.44540 Y21.15920
X50.39460 Y21.15920
X50.26760 Y21.03220
X50.11520 Y20.98140
X49.48020 Y20.98140
X49.32780 Y21.03220
X49.02300 Y21.28620
X48.99760 Y21.38780
X48.89600 Y21.51480
X48.87060 Y21.66720
X48.87060 Y22.14980
X48.94680 Y22.40380
X49.15000 Y22.65780
X49.20080 Y22.65780
X49.32780 Y22.78480
X49.48020 Y22.83560
X57.55740 Y22.83560
X57.63360 Y22.73400
G04 P0 ( dwell for no time -- G64 should not smooth over this point )
G00 Z5.00000 ( retract )

G00 X57.63360 Y25.27400 ( rapid move to begin. )
F300.00000
G01 Z-0.05000
G04 P0 ( dwell for no time -- G64 should not smooth over this point )
F600.00000
X57.63360 Y25.27400
X58.26860 Y24.63900
X58.85280 Y24.63900
X58.87820 Y24.84220
X58.97980 Y24.96920
X59.00520 Y25.07080
X59.31000 Y25.32480
X59.46240 Y25.37560
X60.09740 Y25.37560
X60.24980 Y25.32480
X60.55460 Y25.07080
X60.60540 Y24.91840
X60.68160 Y24.84220
X60.70700 Y24.20720
X60.68160 Y24.05480
X60.60540 Y23.97860
X60.55460 Y23.82620
X60.24980 Y23.57220
X60.09740 Y23.52140
X59.46240 Y23.52140
X59.23380 Y23.62300
X59.00520 Y23.82620
X58.97980 Y23.92780
X58.87820 Y24.05480
X58.85280 Y24.25800
X58.01460 Y24.25800
X57.30340 Y24.99460
X50.59780 Y24.99460
X50.69940 Y24.84220
X50.72480 Y24.68980
X50.69940 Y24.05480
X50.62320 Y23.97860
X50.57240 Y23.82620
X50.44540 Y23.69920
X50.39460 Y23.69920
X50.26760 Y23.57220
X50.11520 Y23.52140
X49.48020 Y23.52140
X49.32780 Y23.57220
X49.02300 Y23.82620
X48.99760 Y23.92780
X48.89600 Y24.05480
X48.87060 Y24.20720
X48.87060 Y24.68980
X48.94680 Y24.94380
X49.15000 Y25.19780
X49.20080 Y25.19780
X49.32780 Y25.32480
X49.48020 Y25.37560
X57.55740 Y25.37560
X57.63360 Y25.27400
G04 P0 ( dwell for no time -- G64 should not smooth over this point )
G00 Z5.00000 ( retract )

G00 X57.63360 Y27.81400 ( rapid move to begin. )
F300.00000
G01 Z-0.05000
G04 P0 ( dwell for no time -- G64 should not smooth over this point )
F600.00000
X57.63360 Y27.81400
X58.26860 Y27.17900
X58.85280 Y27.17900
X58.87820 Y27.38220
X58.97980 Y27.50920
X59.00520 Y27.61080
X59.31000 Y27.86480
X59.46240 Y27.91560
X60.09740 Y27.91560
X60.24980 Y27.86480
X60.55460 Y27.61080
X60.60540 Y27.45840
X60.68160 Y27.38220
X60.70700 Y26.74720
X60.68160 Y26.59480
X60.60540 Y26.51860
X60.55460 Y26.36620
X60.24980 Y26.11220
X60.09740 Y26.06140
X59.46240 Y26.06140
X59.31000 Y26.11220
X59.00520 Y26.36620
X58.97980 Y26.46780
X58.87820 Y26.59480
X58.85280 Y26.79800
X58.01460 Y26.79800
X57.30340 Y27.53460
X50.59780 Y27.53460
X50.69940 Y27.38220
X50.72480 Y27.22980
X50.69940 Y26.59480
X50.62320 Y26.51860
X50.57240 Y26.36620
X50.44540 Y26.23920
X50.39460 Y26.23920
X50.26760 Y26.11220
X50.11520 Y26.06140
X49.48020 Y26.06140
X49.32780 Y26.11220
X49.02300 Y26.36620
X48.99760 Y26.46780
X48.89600 Y26.59480
X48.87060 Y26.74720
X48.87060 Y27.22980
X48.94680 Y27.48380
X49.15000 Y27.73780
X49.20080 Y27.73780
X49.32780 Y27.86480
X49.48020 Y27.91560
X57.55740 Y27.91560
X57.63360 Y27.81400
G04 P0 ( dwell for no time -- G64 should not smooth over this point )
G00 Z5.00000 ( retract )

G00 X57.63360 Y30.35400 ( rapid move to begin. )
F300.00000
G01 Z-0.05000
G04 P0 ( dwell for no time -- G64 should not smooth over this point )
F600.00000
X57.63360 Y30.35400
X58.26860 Y29.71900
X58.85280 Y29.71900
X58.87820 Y29.92220
X58.97980 Y30.04920
X59.00520 Y30.15080
X59.31000 Y30.40480
X59.46240 Y30.45560
X60.09740 Y30.45560
X60.24980 Y30.40480
X60.55460 Y30.15080
X60.60540 Y29.99840
X60.68160 Y29.92220
X60.70700 Y29.28720
X60.68160 Y29.13480
X60.60540 Y29.05860
X60.55460 Y28.90620
X60.24980 Y28.65220
X60.09740 Y28.60140
X59.46240 Y28.60140
X59.31000 Y28.65220
X59.00520 Y28.90620
X58.97980 Y29.00780
X58.87820 Y29.13480
X58.85280 Y29.33800
X58.01460 Y29.33800
X57.30340 Y30.07460
X50.59780 Y30.07460
X50.69940 Y29.92220
X50.72480 Y29.76980
X50.69940 Y29.13480
X50.62320 Y29.05860
X50.57240 Y28.90620
X50.44540 Y28.77920
X50.39460 Y28.77920
X50.26760 Y28.65220
X50.11520 Y28.60140
X49.48020 Y28.60140
X49.32780 Y28.65220
X49.02300 Y28.90620
X48.99760 Y29.00780
X48.89600 Y29.13480
X48.87060 Y29.28720
X48.87060 Y29.76980
X48.94680 Y30.02380
X49.15000 Y30.27780
X49.20080 Y30.27780
X49.32780 Y30.40480
X49.48020 Y30.45560
X57.55740 Y30.45560
X57.63360 Y30.35400
G04 P0 ( dwell for no time -- G64 should not smooth over this point )
G00 Z5.00000 ( retract )

G00 X57.63360 Y32.89400 ( rapid move to begin. )
F300.00000
G01 Z-0.05000
G04 P0 ( dwell for no time -- G64 should not smooth over this point )
F600.00000
X57.63360 Y32.89400
X58.26860 Y32.25900
X58.85280 Y32.25900
X58.85280 Y32.99560
X60.70700 Y32.99560
X60.70700 Y31.14140
X58.85280 Y31.14140
X58.85280 Y31.87800
X58.01460 Y31.87800
X57.30340 Y32.61460
X50.59780 Y32.61460
X50.69940 Y32.46220
X50.72480 Y32.30980
X50.69940 Y31.67480
X50.62320 Y31.59860
X50.57240 Y31.44620
X50.44540 Y31.31920
X50.39460 Y31.31920
X50.26760 Y31.19220
X50.11520 Y31.14140
X49.48020 Y31.14140
X49.32780 Y31.19220
X49.02300 Y31.44620
X48.99760 Y31.54780
X48.89600 Y31.67480
X48.87060 Y31.82720
X48.87060 Y32.30980
X48.94680 Y32.56380
X49.15000 Y32.81780
X49.20080 Y32.81780
X49.32780 Y32.94480
X49.48020 Y32.99560
X57.55740 Y32.99560
X57.63360 Y32.89400
G04 P0 ( dwell for no time -- G64 should not smooth over this point )
G00 Z5.00000 ( retract )

G00 X50.29300 Y37.97400 ( rapid move to begin. )
F300.00000
G01 Z-0.05000
G04 P0 ( dwell for no time -- G64 should not smooth over this point )
F600.00000
X50.29300 Y37.97400
X50.34380 Y37.97400
X50.57240 Y37.77080
X50.62320 Y37.61840
X50.69940 Y37.54220
X50.72480 Y36.90720
X50.67400 Y36.70400
X50.62320 Y36.67860
X50.57240 Y36.52620
X50.44540 Y36.39920
X50.39460 Y36.39920
X50.26760 Y36.27220
X50.11520 Y36.22140
X49.48020 Y36.22140
X49.32780 Y36.27220
X49.02300 Y36.52620
X48.99760 Y36.62780
X48.89600 Y36.75480
X48.87060 Y37.38980
X48.94680 Y37.64380
X49.15000 Y37.89780
X49.20080 Y37.89780
X49.32780 Y38.02480
X49.48020 Y38.07560
X50.11520 Y38.07560
X50.26760 Y38.02480
X50.29300 Y37.97400
G04 P0 ( dwell for no time -- G64 should not smooth over this point )
G00 Z5.00000 ( retract )

G00 X50.29300 Y40.51400 ( rapid move to begin. )
F300.00000
G01 Z-0.05000
G04 P0 ( dwell for no time -- G64 should not smooth over this point )
F600.00000
X50.29300 Y40.51400
X50.34380 Y40.51400
X50.57240 Y40.31080
X50.62320 Y40.15840
X50.69940 Y40.08220
X50.72480 Y39.44720
X50.67400 Y39.24400
X50.62320 Y39.21860
X50.57240 Y39.06620
X50.44540 Y38.93920
X50.39460 Y38.93920
X50.26760 Y38.81220
X50.11520 Y38.76140
X49.48020 Y38.76140
X49.32780 Y38.81220
X49.02300 Y39.06620
X48.99760 Y39.16780
X48.89600 Y39.29480
X48.87060 Y39.92980
X48.94680 Y40.18380
X49.15000 Y40.43780
X49.20080 Y40.43780
X49.32780 Y40.56480
X49.48020 Y40.61560
X50.11520 Y40.61560
X50.26760 Y40.56480
X50.29300 Y40.51400
G04 P0 ( dwell for no time -- G64 should not smooth over this point )
G00 Z5.00000 ( retract )

G00 X50.29300 Y43.05400 ( rapid move to begin. )
F300.00000
G01 Z-0.05000
G04 P0 ( dwell for no time -- G64 should not smooth over this point )
F600.00000
X50.29300 Y43.05400
X50.34380 Y43.05400
X50.57240 Y42.85080
X50.62320 Y42.69840
X50.69940 Y42.62220
X50.72480 Y41.98720
X50.67400 Y41.78400
X50.62320 Y41.75860
X50.57240 Y41.60620
X50.44540 Y41.47920
X50.39460 Y41.47920
X50.26760 Y41.35220
X50.11520 Y41.30140
X49.48020 Y41.30140
X49.32780 Y41.35220
X49.02300 Y41.60620
X48.99760 Y41.70780
X48.89600 Y41.83480
X48.87060 Y42.46980
X48.94680 Y42.72380
X49.15000 Y42.97780
X49.20080 Y42.97780
X49.32780 Y43.10480
X49.48020 Y43.15560
X50.11520 Y43.15560
X50.26760 Y43.10480
X50.29300 Y43.05400
G04 P0 ( dwell for no time -- G64 should not smooth over this point )
G00 Z5.00000 ( retract )

G00 X50.29300 Y45.59400 ( rapid move to begin. )
F300.00000
G01 Z-0.05000
G04 P0 ( dwell for no time -- G64 should not smooth over this point )
F600.00000
X50.29300 Y45.59400
X50.34380 Y45.59400
X50.57240 Y45.39080
X50.62320 Y45.23840
X50.69940 Y45.16220
X50.72480 Y44.52720
X50.67400 Y44.32400
X50.62320 Y44.29860
X50.57240 Y44.14620
X50.44540 Y44.01920
X50.39460 Y44.01920
X50.26760 Y43.89220
X50.11520 Y43.84140
X49.48020 Y43.84140
X49.32780 Y43.89220
X49.02300 Y44.14620
X48.99760 Y44.24780
X48.89600 Y44.37480
X48.87060 Y45.00980
X48.94680 Y45.26380
X49.15000 Y45.51780
X49.20080 Y45.51780
X49.32780 Y45.64480
X49.48020 Y45.69560
X50.11520 Y45.69560
X50.26760 Y45.64480
X50.29300 Y45.59400
G04 P0 ( dwell for no time -- G64 should not smooth over this point )
G00 Z5.00000 ( retract )

G00 X50.29300 Y48.13400 ( rapid move to begin. )
F300.00000
G01 Z-0.05000
G04 P0 ( dwell for no time -- G64 should not smooth over this point )
F600.00000
X50.29300 Y48.13400
X50.34380 Y48.13400
X50.57240 Y47.93080
X50.62320 Y47.77840
X50.69940 Y47.70220
X50.72480 Y47.06720
X50.67400 Y46.86400
X50.62320 Y46.83860
X50.57240 Y46.68620
X50.44540 Y46.55920
X50.39460 Y46.55920
X50.26760 Y46.43220
X50.11520 Y46.38140
X49.48020 Y46.38140
X49.32780 Y46.43220
X49.02300 Y46.68620
X48.99760 Y46.78780
X48.89600 Y46.91480
X48.87060 Y47.54980
X48.94680 Y47.80380
X49.15000 Y48.05780
X49.20080 Y48.05780
X49.32780 Y48.18480
X49.48020 Y48.23560
X50.11520 Y48.23560
X50.26760 Y48.18480
X50.29300 Y48.13400
G04 P0 ( dwell for no time -- G64 should not smooth over this point )
G00 Z5.00000 ( retract )

G00 X50.29300 Y50.67400 ( rapid move to begin. )
F300.00000
G01 Z-0.05000
G04 P0 ( dwell for no time -- G64 should not smooth over this point )
F600.00000
X50.29300 Y50.67400
X50.34380 Y50.67400
X50.57240 Y50.47080
X50.62320 Y50.31840
X50.69940 Y50.24220
X50.72480 Y49.60720
X50.67400 Y49.40400
X50.62320 Y49.37860
X50.57240 Y49.22620
X50.44540 Y49.09920
X50.39460 Y49.09920
X50.26760 Y48.97220
X50.11520 Y48.92140
X49.48020 Y48.92140
X49.32780 Y48.97220
X49.02300 Y49.22620
X48.99760 Y49.32780
X48.89600 Y49.45480
X48.87060 Y50.08980
X48.94680 Y50.34380
X49.15000 Y50.59780
X49.20080 Y50.59780
X49.32780 Y50.72480
X49.48020 Y50.77560
X50.11520 Y50.77560
X50.26760 Y50.72480
X50.29300 Y50.67400
G04 P0 ( dwell for no time -- G64 should not smooth over this point )
G00 Z5.00000 ( retract )

G00 X50.72480 Y53.21400 ( rapid move to begin. )
F300.00000
G01 Z-0.05000
G04 P0 ( dwell for no time -- G64 should not smooth over this point )
F600.00000
X50.72480 Y53.21400
X50.72480 Y52.50280
X55.72860 Y47.49900
X59.03060 Y47.49900
X59.05600 Y47.70220
X59.15760 Y47.82920
X59.18300 Y47.93080
X59.48780 Y48.18480
X59.64020 Y48.23560
X60.27520 Y48.23560
X60.42760 Y48.18480
X60.55460 Y48.05780
X60.60540 Y48.05780
X60.73240 Y47.93080
X60.78320 Y47.77840
X60.85940 Y47.70220
X60.88480 Y47.06720
X60.85940 Y46.91480
X60.78320 Y46.83860
X60.73240 Y46.68620
X60.50380 Y46.48300
X60.27520 Y46.38140
X59.64020 Y46.38140
X59.41160 Y46.48300
X59.18300 Y46.68620
X59.15760 Y46.78780
X59.05600 Y46.91480
X59.03060 Y47.11800
X55.47460 Y47.11800
X50.72480 Y51.89320
X50.72480 Y51.46140
X48.87060 Y51.46140
X48.87060 Y53.31560
X50.72480 Y53.31560
X50.72480 Y53.21400
G04 P0 ( dwell for no time -- G64 should not smooth over this point )
G00 Z5.00000 ( retract )

G00 X60.45300 Y45.59400 ( rapid move to begin. )
F300.00000
G01 Z-0.05000
G04 P0 ( dwell for no time -- G64 should not smooth over this point )
F600.00000
X60.45300 Y45.59400
X60.50380 Y45.59400
X60.73240 Y45.39080
X60.78320 Y45.23840
X60.85940 Y45.16220
X60.88480 Y44.52720
X60.85940 Y44.37480
X60.78320 Y44.29860
X60.73240 Y44.14620
X60.42760 Y43.89220
X60.27520 Y43.84140
X59.64020 Y43.84140
X59.48780 Y43.89220
X59.18300 Y44.14620
X59.15760 Y44.24780
X59.05600 Y44.37480
X59.03060 Y44.57800
X57.53200 Y44.57800
X55.06820 Y42.11420
X55.06820 Y37.74540
X52.47740 Y35.15460
X50.59780 Y35.15460
X50.69940 Y35.00220
X50.72480 Y34.84980
X50.72480 Y34.36720
X50.67400 Y34.16400
X50.62320 Y34.13860
X50.57240 Y33.98620
X50.44540 Y33.85920
X50.39460 Y33.85920
X50.26760 Y33.73220
X50.11520 Y33.68140
X49.48020 Y33.68140
X49.32780 Y33.73220
X49.20080 Y33.85920
X49.15000 Y33.85920
X49.02300 Y33.98620
X48.99760 Y34.08780
X48.89600 Y34.21480
X48.87060 Y34.84980
X48.89600 Y35.00220
X48.99760 Y35.12920
X49.02300 Y35.23080
X49.25160 Y35.43400
X49.48020 Y35.53560
X52.22340 Y35.53560
X54.68720 Y37.99940
X54.68720 Y42.36820
X57.27800 Y44.95900
X59.03060 Y44.95900
X59.05600 Y45.16220
X59.15760 Y45.28920
X59.18300 Y45.39080
X59.48780 Y45.64480
X59.64020 Y45.69560
X60.27520 Y45.69560
X60.42760 Y45.64480
X60.45300 Y45.59400
G04 P0 ( dwell for no time -- G64 should not smooth over this point )
G00 Z5.00000 ( retract )

G00 X64.61860 Y56.94780 ( rapid move to begin. )
F300.00000
G01 Z-0.05000
G04 P0 ( dwell for no time -- G64 should not smooth over this point )
F600.00000
X64.61860 Y56.94780
X64.61860 Y2.05840
X64.56780 Y2.00760
X2.03300 Y2.00760
X1.95680 Y2.05840
X1.95680 Y56.97320
X2.03300 Y57.04940
X64.56780 Y57.04940
X64.61860 Y56.94780
G04 P0 ( dwell for no time -- G64 should not smooth over this point )
G00 Z5.00000 ( retract )

G00 X24.89300 Y50.67400 ( rapid move to begin. )
F300.00000
G01 Z-0.05000
G04 P0 ( dwell for no time -- G64 should not smooth over this point )
F600.00000
X24.89300 Y50.67400
X24.94380 Y50.67400
X25.17240 Y50.47080
X25.22320 Y50.31840
X25.29940 Y50.24220
X25.32480 Y49.60720
X25.27400 Y49.40400
X25.22320 Y49.37860
X25.17240 Y49.22620
X25.04540 Y49.09920
X24.99460 Y49.09920
X24.86760 Y48.97220
X24.71520 Y48.92140
X24.08020 Y48.92140
X23.92780 Y48.97220
X23.62300 Y49.22620
X23.59760 Y49.32780
X23.49600 Y49.45480
X23.47060 Y50.08980
X23.54680 Y50.34380
X23.75000 Y50.59780
X23.80080 Y50.59780
X23.92780 Y50.72480
X24.08020 Y50.77560
X24.71520 Y50.77560
X24.86760 Y50.72480
X24.89300 Y50.67400
G04 P0 ( dwell for no time -- G64 should not smooth over this point )
G00 Z5.00000 ( retract )

G00 X24.89300 Y48.13400 ( rapid move to begin. )
F300.00000
G01 Z-0.05000
G04 P0 ( dwell for no time -- G64 should not smooth over this point )
F600.00000
X24.89300 Y48.13400
X24.94380 Y48.13400
X25.17240 Y47.93080
X25.22320 Y47.77840
X25.29940 Y47.70220
X25.32480 Y47.06720
X25.27400 Y46.86400
X25.22320 Y46.83860
X25.17240 Y46.68620
X25.04540 Y46.55920
X24.99460 Y46.55920
X24.86760 Y46.43220
X24.71520 Y46.38140
X24.08020 Y46.38140
X23.92780 Y46.43220
X23.62300 Y46.68620
X23.59760 Y46.78780
X23.49600 Y46.91480
X23.47060 Y47.54980
X23.54680 Y47.80380
X23.75000 Y48.05780
X23.80080 Y48.05780
X23.92780 Y48.18480
X24.08020 Y48.23560
X24.71520 Y48.23560
X24.86760 Y48.18480
X24.89300 Y48.13400
G04 P0 ( dwell for no time -- G64 should not smooth over this point )
G00 Z5.00000 ( retract )

G00 X24.89300 Y45.59400 ( rapid move to begin. )
F300.00000
G01 Z-0.05000
G04 P0 ( dwell for no time -- G64 should not smooth over this point )
F600.00000
X24.89300 Y45.59400
X24.94380 Y45.59400
X25.17240 Y45.39080
X25.22320 Y45.23840
X25.29940 Y45.16220
X25.32480 Y44.52720
X25.27400 Y44.32400
X25.22320 Y44.29860
X25.17240 Y44.14620
X25.04540 Y44.01920
X24.99460 Y44.01920
X24.86760 Y43.89220
X24.71520 Y43.84140
X24.08020 Y43.84140
X23.92780 Y43.89220
X23.62300 Y44.14620
X23.59760 Y44.24780
X23.49600 Y44.37480
X23.47060 Y45.00980
X23.54680 Y45.26380
X23.75000 Y45.51780
X23.80080 Y45.51780
X23.92780 Y45.64480
X24.08020 Y45.69560
X24.71520 Y45.69560
X24.86760 Y45.64480
X24.89300 Y45.59400
G04 P0 ( dwell for no time -- G64 should not smooth over this point )
G00 Z5.00000 ( retract )

G00 X7.34160 Y43.35880 ( rapid move to begin. )
F300.00000
G01 Z-0.05000
G04 P0 ( dwell for no time -- G64 should not smooth over this point )
F600.00000
X7.34160 Y43.35880
X7.41780 Y43.20640
X7.39240 Y42.21580
X7.31620 Y42.11420
X7.16380 Y42.06340
X6.80820 Y42.06340
X6.80820 Y40.41240
X7.16380 Y40.41240
X7.31620 Y40.36160
X7.39240 Y40.26000
X7.39240 Y39.21860
X7.31620 Y39.11700
X7.16380 Y39.06620
X6.78280 Y39.06620
X6.75740 Y39.01540
X6.47800 Y39.01540
X6.45260 Y39.06620
X6.07160 Y39.06620
X5.91920 Y39.11700
X5.81760 Y39.32020
X5.81760 Y40.15840
X5.91920 Y40.36160
X6.07160 Y40.41240
X6.42720 Y40.41240
X6.42720 Y42.06340
X6.07160 Y42.06340
X5.91920 Y42.11420
X5.84300 Y42.21580
X5.84300 Y43.30800
X5.91920 Y43.40960
X6.07160 Y43.46040
X7.16380 Y43.46040
X7.31620 Y43.40960
X7.34160 Y43.35880
G04 P0 ( dwell for no time -- G64 should not smooth over this point )
G00 Z5.00000 ( retract )

G00 X7.34160 Y38.25340 ( rapid move to begin. )
F300.00000
G01 Z-0.05000
G04 P0 ( dwell for no time -- G64 should not smooth over this point )
F600.00000
X7.34160 Y38.25340
X7.41780 Y38.10100
X7.41780 Y37.26280
X7.31620 Y37.05960
X7.06220 Y37.00880
X13.61540 Y30.45560
X24.71520 Y30.45560
X24.86760 Y30.40480
X24.99460 Y30.27780
X25.04540 Y30.27780
X25.17240 Y30.15080
X25.22320 Y29.99840
X25.29940 Y29.92220
X25.32480 Y29.28720
X25.27400 Y29.08400
X25.22320 Y29.05860
X25.17240 Y28.90620
X25.04540 Y28.77920
X24.99460 Y28.77920
X24.86760 Y28.65220
X24.71520 Y28.60140
X24.08020 Y28.60140
X23.92780 Y28.65220
X23.62300 Y28.90620
X23.59760 Y29.00780
X23.49600 Y29.13480
X23.47060 Y29.76980
X23.49600 Y29.92220
X23.59760 Y30.07460
X13.36140 Y30.07460
X6.45260 Y37.00880
X6.07160 Y37.00880
X5.86840 Y37.11040
X5.81760 Y37.26280
X5.81760 Y38.10100
X5.91920 Y38.30420
X6.07160 Y38.35500
X7.16380 Y38.35500
X7.31620 Y38.30420
X7.34160 Y38.25340
G04 P0 ( dwell for no time -- G64 should not smooth over this point )
G00 Z5.00000 ( retract )

G00 X60.27520 Y10.03400 ( rapid move to begin. )
F300.00000
G01 Z-0.05000
G04 P0 ( dwell for no time -- G64 should not smooth over this point )
F600.00000
X60.27520 Y10.03400
X60.32600 Y10.03400
X60.55460 Y9.83080
X60.60540 Y9.67840
X60.68160 Y9.60220
X60.70700 Y8.96720
X60.68160 Y8.81480
X60.60540 Y8.73860
X60.55460 Y8.58620
X60.32600 Y8.38300
X60.09740 Y8.28140
X59.46240 Y8.28140
X59.31000 Y8.33220
X59.00520 Y8.58620
X58.97980 Y8.68780
X58.87820 Y8.81480
X58.85280 Y9.01800
X54.99200 Y9.01800
X53.21400 Y7.21460
X50.59780 Y7.21460
X50.69940 Y7.06220
X50.72480 Y6.90980
X50.69940 Y6.27480
X50.62320 Y6.19860
X50.57240 Y6.04620
X50.26760 Y5.79220
X50.11520 Y5.74140
X49.48020 Y5.74140
X49.32780 Y5.79220
X49.02300 Y6.04620
X48.99760 Y6.14780
X48.89600 Y6.27480
X48.89600 Y7.06220
X48.99760 Y7.18920
X49.02300 Y7.29080
X49.32780 Y7.54480
X49.48020 Y7.59560
X52.96000 Y7.59560
X54.73800 Y9.39900
X58.85280 Y9.39900
X58.87820 Y9.60220
X58.97980 Y9.72920
X59.00520 Y9.83080
X59.31000 Y10.08480
X59.46240 Y10.13560
X60.09740 Y10.13560
X60.24980 Y10.08480
X60.27520 Y10.03400

G04 P0 ( dwell for no time -- G64 should not smooth over this point )
G00 Z10.000 ( retract )

M5 ( Spindle off. )
M9 ( Coolant off. )
M2 ( Program end. )

