( pcb2gcode 1.3.2 )
( Software-independent Gcode )

G94 ( Millimeters per minute feed rate. )
G21 ( Units == Millimeters. )

G90 ( Absolute coordinates. )
S10000 ( RPM spindle speed. )
G64 P0.05080 ( set maximum deviation from commanded toolpath )
F600.00000 ( Feedrate. )

F600.00000 ( Feedrate. )
M3 ( Spindle on clockwise. )
G04 P0 ( dwell for no time -- G64 should not smooth over this point )
G00 Z5.00000 ( retract )

G00 X66.52360 Y57.43040 ( rapid move to begin. )
G01 Z-2.50000 F300.00000 ( plunge. )
G04 P0 ( dwell for no time -- G64 should not smooth over this point )
F600.00000
X66.52360 Y57.43040
X66.52360 Y0.10260
X35.03770 Y0.10260
Z-0.60000
X31.53770 Y0.10260
Z-2.50000 F300.00000
F600.00000X0.05180 Y0.10260
X0.07720 Y58.95440
X31.53770 Y58.95440
Z-0.60000
X35.03770 Y58.95440
Z-2.50000 F300.00000
F600.00000X66.49820 Y58.95440
X66.52360 Y57.43040

G04 P0 ( dwell for no time -- G64 should not smooth over this point )
G00 Z10.000 ( retract )

M5 ( Spindle off. )
M9 ( Coolant off. )
M2 ( Program end. )

